report_00007_2020-12-11T15:55:29.892Z/largest-contentful-paint/comparison/line/2_vs_3.svg

<svg width="640" height="500" xmlns="http://www.w3.org/2000/svg" xmlns:xlink="http://www.w3.org/1999/xlink"><path fill="#fff" d="M0 0h640v500H0z"/><defs><path id="d" stroke-width=".222" stroke="currentColor" d="M-1-1h2v2h-2z"/><path id="b" stroke-width=".222" stroke="currentColor" d="M0-1.33l-1.33 2h2.66z"/><path id="f" stroke-width=".222" stroke="currentColor" d="M0 1.33L1.265.411.782-1.067l-1.564-.009-.483 1.487z"/><use xlink:href="#b" id="c" stroke="currentColor" transform="rotate(180)"/><use xlink:href="#d" id="e" stroke="currentColor" transform="rotate(45)"/><circle id="a" stroke-width=".222" stroke="currentColor" cx="0" cy="0" r="1"/></defs><g fill="none" color="#000" stroke="currentColor"><path stroke="#000" d="M70.5 405h9m535.5 0h-9"/><text transform="translate(62.2 408.9)" stroke="none" fill="#000" font-family="Arial" font-size="12" text-anchor="end"><tspan>12000</tspan></text></g><g fill="none" color="#000" stroke="currentColor"><path stroke="#000" d="M70.5 361.8h9m535.5 0h-9"/><text transform="translate(62.2 365.7)" stroke="none" fill="#000" font-family="Arial" font-size="12" text-anchor="end"><tspan>14000</tspan></text></g><g fill="none" color="#000" stroke="currentColor"><path stroke="#000" d="M70.5 318.5h9m535.5 0h-9"/><text transform="translate(62.2 322.4)" stroke="none" fill="#000" font-family="Arial" font-size="12" text-anchor="end"><tspan>16000</tspan></text></g><g fill="none" color="#000" stroke="currentColor"><path stroke="#000" d="M70.5 275.3h9m535.5 0h-9"/><text transform="translate(62.2 279.2)" stroke="none" fill="#000" font-family="Arial" font-size="12" text-anchor="end"><tspan>18000</tspan></text></g><g fill="none" color="#000" stroke="currentColor"><path stroke="#000" d="M70.5 232.1h9m535.5 0h-9"/><text transform="translate(62.2 236)" stroke="none" fill="#000" font-family="Arial" font-size="12" text-anchor="end"><tspan>20000</tspan></text></g><g fill="none" color="#000" stroke="currentColor"><path stroke="#000" d="M70.5 188.8h9m535.5 0h-9"/><text transform="translate(62.2 192.7)" stroke="none" fill="#000" font-family="Arial" font-size="12" text-anchor="end"><tspan>22000</tspan></text></g><g fill="none" color="#000" stroke="currentColor"><path stroke="#000" d="M70.5 145.6h9m535.5 0h-9"/><text transform="translate(62.2 149.5)" stroke="none" fill="#000" font-family="Arial" font-size="12" text-anchor="end"><tspan>24000</tspan></text></g><g fill="none" color="#000" stroke="currentColor"><path stroke="#000" d="M70.5 102.3h9m535.5 0h-9"/><text transform="translate(62.2 106.2)" stroke="none" fill="#000" font-family="Arial" font-size="12" text-anchor="end"><tspan>26000</tspan></text></g><g fill="none" color="#000" stroke="currentColor"><path stroke="#000" d="M70.5 59.1h9m535.5 0h-9"/><text transform="translate(62.2 63)" stroke="none" fill="#000" font-family="Arial" font-size="12" text-anchor="end"><tspan>28000</tspan></text></g><g fill="none" color="#000" stroke="currentColor"><path stroke="#000" d="M70.5 428v-9m0-400.9v9"/><text transform="translate(70.5 449.9)" stroke="none" fill="#000" font-family="Arial" font-size="12" text-anchor="middle"><tspan>0</tspan></text></g><g fill="none" color="#000" stroke="currentColor"><path stroke="#000" d="M125.5 428v-9m0-400.9v9"/><text transform="translate(125.5 449.9)" stroke="none" fill="#000" font-family="Arial" font-size="12" text-anchor="middle"><tspan>10</tspan></text></g><g fill="none" color="#000" stroke="currentColor"><path stroke="#000" d="M180.5 428v-9m0-400.9v9"/><text transform="translate(180.5 449.9)" stroke="none" fill="#000" font-family="Arial" font-size="12" text-anchor="middle"><tspan>20</tspan></text></g><g fill="none" color="#000" stroke="currentColor"><path stroke="#000" d="M235.5 428v-9m0-400.9v9"/><text transform="translate(235.5 449.9)" stroke="none" fill="#000" font-family="Arial" font-size="12" text-anchor="middle"><tspan>30</tspan></text></g><g fill="none" color="#000" stroke="currentColor"><path stroke="#000" d="M290.5 428v-9m0-400.9v9"/><text transform="translate(290.5 449.9)" stroke="none" fill="#000" font-family="Arial" font-size="12" text-anchor="middle"><tspan>40</tspan></text></g><g fill="none" color="#000" stroke="currentColor"><path stroke="#000" d="M345.5 428v-9m0-400.9v9"/><text transform="translate(345.5 449.9)" stroke="none" fill="#000" font-family="Arial" font-size="12" text-anchor="middle"><tspan>50</tspan></text></g><g fill="none" color="#000" stroke="currentColor"><path stroke="#000" d="M400.5 428v-9m0-400.9v9"/><text transform="translate(400.5 449.9)" stroke="none" fill="#000" font-family="Arial" font-size="12" text-anchor="middle"><tspan>60</tspan></text></g><g fill="none" color="#000" stroke="currentColor"><path stroke="#000" d="M455.5 428v-9m0-400.9v9"/><text transform="translate(455.5 449.9)" stroke="none" fill="#000" font-family="Arial" font-size="12" text-anchor="middle"><tspan>70</tspan></text></g><g fill="none" color="#000" stroke="currentColor"><path stroke="#000" d="M510.5 428v-9m0-400.9v9"/><text transform="translate(510.5 449.9)" stroke="none" fill="#000" font-family="Arial" font-size="12" text-anchor="middle"><tspan>80</tspan></text></g><g fill="none" color="#000" stroke="currentColor"><path stroke="#000" d="M565.5 428v-9m0-400.9v9"/><text transform="translate(565.5 449.9)" stroke="none" fill="#000" font-family="Arial" font-size="12" text-anchor="middle"><tspan>90</tspan></text></g><path stroke="#000" d="M70.5 18.1V428H615V18.1H70.5z" fill="none" color="#000"/><text transform="translate(283.9 467.9)" stroke="none" fill="#000" font-family="Arial" font-size="12" text-anchor="end" color="#000"><tspan>pages+cached</tspan></text><path stroke="#9400D3" d="M292.2 464h42.2M70.5 398.6l5.5 21.5 5.5-79.7L87 323l5.5.4 5.5-.1h5.5l5.5 19.6 5.5 1.6L120 323l5.5 21.6 5.5-21.7 5.5-1 5.5 21 5.5-19.7 5.5 19.6 5.5-19.6 5.5 19.9 5.5-20.1 5.5 21.7 5.5-1.2 5.5-.6 5.5-19.3 5.5.1 5.5.1 5.5 19.3 5.5-19.8 5.5.6 5.5 19.4 5.5 1 5.5-20.6 5.5-.3 5.5.1 5.5-.1 5.5.4 5.5-.8 5.5.5 5.5 19.3 5.5 2.4 5.5-21.7h11l5.5 19.5 5.5-19.9 5.5.6 5.5-.4 5.5 21.8 5.5-21.6 5.5.1L340 343l5.5 1.9 5.5-1.6 5.5-21.4 5.5 1.5 5.5 19.6 5.5 1.8 5.5-.2 5.5-.1 5.5-20.5 5.5 19.5h5.5l5.5-20.1 5.5 21.7 5.5-21.6 5.5 19.8 5.5-19.4 5.5-.5 5.5.4 5.5.1 5.5 20.7 5.5-20.9 5.5-.1h5.5l5.5.1 5.5-.6 5.5.7 5.5-.3 5.5 21.4 5.5-21 5.5-.2 5.5 19.2 5.5-19.2 5.5 19.5 5.5-19.5 5.5.5 5.5-.6 5.5 21.3 5.5-21.3 5.5.3L560 345l5.5-21.3L571 345l5.5-.4 5.5.1 5.5-21 5.5.3 5.5 21.5 5.5-22 5.5 19.6 5.5-.2" fill="none" color="#000"/><text transform="translate(283.9 485.9)" stroke="none" fill="#000" font-family="Arial" font-size="12" text-anchor="end" color="#000"><tspan>pages+cached+nointeractive</tspan></text><path stroke="#009E73" d="M292.2 482h42.2M70.5 343.1L76 324l5.5-.1 5.5-.2 5.5-.1 5.5.1 5.5 19 5.5 1.1 5.5-21.7 5.5 21.2 5.5-19.4 5.5 19.5 5.5 1.5 5.5-1.8 5.5-19.3 5.5-.4 5.5.7 5.5-.6 5.5.3 5.5 19.5 5.5-19.5 5.5-.2 5.5.1 5.5-.1 5.5 19.9 5.5 1.1 5.5-22.2 5.5 22.5 5.5-318.6 5.5 201.4L235.5 26l5.5.8 5.5 189.7 5.5 10 5.5-188.6 5.5 178.6 5.5-92.9 5.5-97.4 5.5.4h5.5l5.5 189.6L296 26.1l5.5.5 5.5-.6 5.5 11.7 5.5.1 5.5-11.2 5.5-.1 5.5-.1 5.5 97.4 5.5-97.2 5.5 97.1 5.5-85.8 5.5 189.9 5.5-11.4 5.5 11.7 5.5-192 5.5 87.5 5.5-96.4 5.5 200.7 5.5-12L406 36.1l5.5-9.4 5.5-.4 5.5 189.9 5.5.3 5.5-92.8 5.5 92.8 5.5-92.9 5.5-97.3 5.5 268.4 5.5 9.4 5.5-87.7 5.5.1 5.5-190.3 5.5.5 5.5-.3 5.5-.2 5.5.2 5.5 201.3L510.5 27l5.5 267.2L521.5 26l5.5 201.9 5.5.8L538 26.3l5.5 190.1L549 36l5.5 180.5 5.5 88 5.5-278.1 5.5 189.5 5.5-178.4 5.5 179.1 5.5-189.8 5.5 199.7 5.5-9.9L604 26.5h5.5l5.5-.3" fill="none" color="#000"/><text transform="translate(558.5 467.9)" stroke="none" fill="#000" font-family="Arial" font-size="12" text-anchor="end" color="#000"><tspan>score p10=2500</tspan></text><path stroke="#56B4E9" d="M566.8 464H609" fill="none" color="#000"/><g><text transform="translate(558.5 485.9)" stroke="none" fill="#000" font-family="Arial" font-size="12" text-anchor="end" color="#000"><tspan>score median=4000</tspan></text><path stroke="#E69F00" d="M566.8 482H609" fill="none" color="#000"/></g><g fill="none" color="#000" stroke="currentColor"><path stroke="#000" d="M70.5 18.1V428H615V18.1H70.5z"/></g></svg>

<?xml version="1.0" encoding="utf-8"  standalone="no"?>
<svg 
 width="640" height="500"
 viewBox="0 0 640 500"
 xmlns="http://www.w3.org/2000/svg"
 xmlns:xlink="http://www.w3.org/1999/xlink"
>

<title>Gnuplot</title>
<desc>Produced by GNUPLOT 5.4 patchlevel 0 </desc>

<g id="gnuplot_canvas">

<rect x="0" y="0" width="640" height="500" fill="#ffffff"/>
<defs>

	<circle id='gpDot' r='0.5' stroke-width='0.5' stroke='currentColor'/>
	<path id='gpPt0' stroke-width='0.222' stroke='currentColor' d='M-1,0 h2 M0,-1 v2'/>
	<path id='gpPt1' stroke-width='0.222' stroke='currentColor' d='M-1,-1 L1,1 M1,-1 L-1,1'/>
	<path id='gpPt2' stroke-width='0.222' stroke='currentColor' d='M-1,0 L1,0 M0,-1 L0,1 M-1,-1 L1,1 M-1,1 L1,-1'/>
	<rect id='gpPt3' stroke-width='0.222' stroke='currentColor' x='-1' y='-1' width='2' height='2'/>
	<rect id='gpPt4' stroke-width='0.222' stroke='currentColor' fill='currentColor' x='-1' y='-1' width='2' height='2'/>
	<circle id='gpPt5' stroke-width='0.222' stroke='currentColor' cx='0' cy='0' r='1'/>
	<use xlink:href='#gpPt5' id='gpPt6' fill='currentColor' stroke='none'/>
	<path id='gpPt7' stroke-width='0.222' stroke='currentColor' d='M0,-1.33 L-1.33,0.67 L1.33,0.67 z'/>
	<use xlink:href='#gpPt7' id='gpPt8' fill='currentColor' stroke='none'/>
	<use xlink:href='#gpPt7' id='gpPt9' stroke='currentColor' transform='rotate(180)'/>
	<use xlink:href='#gpPt9' id='gpPt10' fill='currentColor' stroke='none'/>
	<use xlink:href='#gpPt3' id='gpPt11' stroke='currentColor' transform='rotate(45)'/>
	<use xlink:href='#gpPt11' id='gpPt12' fill='currentColor' stroke='none'/>
	<path id='gpPt13' stroke-width='0.222' stroke='currentColor' d='M0,1.330 L1.265,0.411 L0.782,-1.067 L-0.782,-1.076 L-1.265,0.411 z'/>
	<use xlink:href='#gpPt13' id='gpPt14' fill='currentColor' stroke='none'/>
	<filter id='textbox' filterUnits='objectBoundingBox' x='0' y='0' height='1' width='1'>
	  <feFlood flood-color='#FFFFFF' flood-opacity='1' result='bgnd'/>
	  <feComposite in='SourceGraphic' in2='bgnd' operator='atop'/>
	</filter>
	<filter id='greybox' filterUnits='objectBoundingBox' x='0' y='0' height='1' width='1'>
	  <feFlood flood-color='lightgrey' flood-opacity='1' result='grey'/>
	  <feComposite in='SourceGraphic' in2='grey' operator='atop'/>
	</filter>
</defs>
<g fill="none" color="#FFFFFF" stroke="black" stroke-width="1.00" stroke-linecap="butt" stroke-linejoin="miter">
</g>
<g fill="none" color="black" stroke="currentColor" stroke-width="1.00" stroke-linecap="butt" stroke-linejoin="miter">
	<path stroke='black'  d='M70.5,405.0 L79.5,405.0 M615.0,405.0 L606.0,405.0  '/>	<g transform="translate(62.2,408.9)" stroke="none" fill="black" font-family="Arial" font-size="12.00"  text-anchor="end">
		<text><tspan font-family="Arial" > 12000</tspan></text>
	</g>
</g>
<g fill="none" color="black" stroke="currentColor" stroke-width="1.00" stroke-linecap="butt" stroke-linejoin="miter">
	<path stroke='black'  d='M70.5,361.8 L79.5,361.8 M615.0,361.8 L606.0,361.8  '/>	<g transform="translate(62.2,365.7)" stroke="none" fill="black" font-family="Arial" font-size="12.00"  text-anchor="end">
		<text><tspan font-family="Arial" > 14000</tspan></text>
	</g>
</g>
<g fill="none" color="black" stroke="currentColor" stroke-width="1.00" stroke-linecap="butt" stroke-linejoin="miter">
	<path stroke='black'  d='M70.5,318.5 L79.5,318.5 M615.0,318.5 L606.0,318.5  '/>	<g transform="translate(62.2,322.4)" stroke="none" fill="black" font-family="Arial" font-size="12.00"  text-anchor="end">
		<text><tspan font-family="Arial" > 16000</tspan></text>
	</g>
</g>
<g fill="none" color="black" stroke="currentColor" stroke-width="1.00" stroke-linecap="butt" stroke-linejoin="miter">
	<path stroke='black'  d='M70.5,275.3 L79.5,275.3 M615.0,275.3 L606.0,275.3  '/>	<g transform="translate(62.2,279.2)" stroke="none" fill="black" font-family="Arial" font-size="12.00"  text-anchor="end">
		<text><tspan font-family="Arial" > 18000</tspan></text>
	</g>
</g>
<g fill="none" color="black" stroke="currentColor" stroke-width="1.00" stroke-linecap="butt" stroke-linejoin="miter">
	<path stroke='black'  d='M70.5,232.1 L79.5,232.1 M615.0,232.1 L606.0,232.1  '/>	<g transform="translate(62.2,236.0)" stroke="none" fill="black" font-family="Arial" font-size="12.00"  text-anchor="end">
		<text><tspan font-family="Arial" > 20000</tspan></text>
	</g>
</g>
<g fill="none" color="black" stroke="currentColor" stroke-width="1.00" stroke-linecap="butt" stroke-linejoin="miter">
	<path stroke='black'  d='M70.5,188.8 L79.5,188.8 M615.0,188.8 L606.0,188.8  '/>	<g transform="translate(62.2,192.7)" stroke="none" fill="black" font-family="Arial" font-size="12.00"  text-anchor="end">
		<text><tspan font-family="Arial" > 22000</tspan></text>
	</g>
</g>
<g fill="none" color="black" stroke="currentColor" stroke-width="1.00" stroke-linecap="butt" stroke-linejoin="miter">
	<path stroke='black'  d='M70.5,145.6 L79.5,145.6 M615.0,145.6 L606.0,145.6  '/>	<g transform="translate(62.2,149.5)" stroke="none" fill="black" font-family="Arial" font-size="12.00"  text-anchor="end">
		<text><tspan font-family="Arial" > 24000</tspan></text>
	</g>
</g>
<g fill="none" color="black" stroke="currentColor" stroke-width="1.00" stroke-linecap="butt" stroke-linejoin="miter">
	<path stroke='black'  d='M70.5,102.3 L79.5,102.3 M615.0,102.3 L606.0,102.3  '/>	<g transform="translate(62.2,106.2)" stroke="none" fill="black" font-family="Arial" font-size="12.00"  text-anchor="end">
		<text><tspan font-family="Arial" > 26000</tspan></text>
	</g>
</g>
<g fill="none" color="black" stroke="currentColor" stroke-width="1.00" stroke-linecap="butt" stroke-linejoin="miter">
	<path stroke='black'  d='M70.5,59.1 L79.5,59.1 M615.0,59.1 L606.0,59.1  '/>	<g transform="translate(62.2,63.0)" stroke="none" fill="black" font-family="Arial" font-size="12.00"  text-anchor="end">
		<text><tspan font-family="Arial" > 28000</tspan></text>
	</g>
</g>
<g fill="none" color="black" stroke="currentColor" stroke-width="1.00" stroke-linecap="butt" stroke-linejoin="miter">
	<path stroke='black'  d='M70.5,428.0 L70.5,419.0 M70.5,18.1 L70.5,27.1  '/>	<g transform="translate(70.5,449.9)" stroke="none" fill="black" font-family="Arial" font-size="12.00"  text-anchor="middle">
		<text><tspan font-family="Arial" > 0</tspan></text>
	</g>
</g>
<g fill="none" color="black" stroke="currentColor" stroke-width="1.00" stroke-linecap="butt" stroke-linejoin="miter">
	<path stroke='black'  d='M125.5,428.0 L125.5,419.0 M125.5,18.1 L125.5,27.1  '/>	<g transform="translate(125.5,449.9)" stroke="none" fill="black" font-family="Arial" font-size="12.00"  text-anchor="middle">
		<text><tspan font-family="Arial" > 10</tspan></text>
	</g>
</g>
<g fill="none" color="black" stroke="currentColor" stroke-width="1.00" stroke-linecap="butt" stroke-linejoin="miter">
	<path stroke='black'  d='M180.5,428.0 L180.5,419.0 M180.5,18.1 L180.5,27.1  '/>	<g transform="translate(180.5,449.9)" stroke="none" fill="black" font-family="Arial" font-size="12.00"  text-anchor="middle">
		<text><tspan font-family="Arial" > 20</tspan></text>
	</g>
</g>
<g fill="none" color="black" stroke="currentColor" stroke-width="1.00" stroke-linecap="butt" stroke-linejoin="miter">
	<path stroke='black'  d='M235.5,428.0 L235.5,419.0 M235.5,18.1 L235.5,27.1  '/>	<g transform="translate(235.5,449.9)" stroke="none" fill="black" font-family="Arial" font-size="12.00"  text-anchor="middle">
		<text><tspan font-family="Arial" > 30</tspan></text>
	</g>
</g>
<g fill="none" color="black" stroke="currentColor" stroke-width="1.00" stroke-linecap="butt" stroke-linejoin="miter">
	<path stroke='black'  d='M290.5,428.0 L290.5,419.0 M290.5,18.1 L290.5,27.1  '/>	<g transform="translate(290.5,449.9)" stroke="none" fill="black" font-family="Arial" font-size="12.00"  text-anchor="middle">
		<text><tspan font-family="Arial" > 40</tspan></text>
	</g>
</g>
<g fill="none" color="black" stroke="currentColor" stroke-width="1.00" stroke-linecap="butt" stroke-linejoin="miter">
	<path stroke='black'  d='M345.5,428.0 L345.5,419.0 M345.5,18.1 L345.5,27.1  '/>	<g transform="translate(345.5,449.9)" stroke="none" fill="black" font-family="Arial" font-size="12.00"  text-anchor="middle">
		<text><tspan font-family="Arial" > 50</tspan></text>
	</g>
</g>
<g fill="none" color="black" stroke="currentColor" stroke-width="1.00" stroke-linecap="butt" stroke-linejoin="miter">
	<path stroke='black'  d='M400.5,428.0 L400.5,419.0 M400.5,18.1 L400.5,27.1  '/>	<g transform="translate(400.5,449.9)" stroke="none" fill="black" font-family="Arial" font-size="12.00"  text-anchor="middle">
		<text><tspan font-family="Arial" > 60</tspan></text>
	</g>
</g>
<g fill="none" color="black" stroke="currentColor" stroke-width="1.00" stroke-linecap="butt" stroke-linejoin="miter">
	<path stroke='black'  d='M455.5,428.0 L455.5,419.0 M455.5,18.1 L455.5,27.1  '/>	<g transform="translate(455.5,449.9)" stroke="none" fill="black" font-family="Arial" font-size="12.00"  text-anchor="middle">
		<text><tspan font-family="Arial" > 70</tspan></text>
	</g>
</g>
<g fill="none" color="black" stroke="currentColor" stroke-width="1.00" stroke-linecap="butt" stroke-linejoin="miter">
	<path stroke='black'  d='M510.5,428.0 L510.5,419.0 M510.5,18.1 L510.5,27.1  '/>	<g transform="translate(510.5,449.9)" stroke="none" fill="black" font-family="Arial" font-size="12.00"  text-anchor="middle">
		<text><tspan font-family="Arial" > 80</tspan></text>
	</g>
</g>
<g fill="none" color="black" stroke="currentColor" stroke-width="1.00" stroke-linecap="butt" stroke-linejoin="miter">
	<path stroke='black'  d='M565.5,428.0 L565.5,419.0 M565.5,18.1 L565.5,27.1  '/>	<g transform="translate(565.5,449.9)" stroke="none" fill="black" font-family="Arial" font-size="12.00"  text-anchor="middle">
		<text><tspan font-family="Arial" > 90</tspan></text>
	</g>
</g>
<g fill="none" color="black" stroke="currentColor" stroke-width="1.00" stroke-linecap="butt" stroke-linejoin="miter">
</g>
<g fill="none" color="black" stroke="currentColor" stroke-width="1.00" stroke-linecap="butt" stroke-linejoin="miter">
	<path stroke='black'  d='M70.5,18.1 L70.5,428.0 L615.0,428.0 L615.0,18.1 L70.5,18.1 Z  '/></g>
<g fill="none" color="black" stroke="currentColor" stroke-width="1.00" stroke-linecap="butt" stroke-linejoin="miter">
</g>
	<g id="gnuplot_plot_1" ><title>pages+cached</title>
<g fill="none" color="black" stroke="currentColor" stroke-width="1.00" stroke-linecap="butt" stroke-linejoin="miter">
	<g transform="translate(283.9,467.9)" stroke="none" fill="black" font-family="Arial" font-size="12.00"  text-anchor="end">
		<text><tspan font-family="Arial" >pages+cached</tspan></text>
	</g>
</g>
<g fill="none" color="black" stroke="currentColor" stroke-width="1.00" stroke-linecap="butt" stroke-linejoin="miter">
	<path stroke='rgb(148,   0, 211)'  d='M292.2,464.0 L334.4,464.0 M70.5,398.6 L76.0,420.1 L81.5,340.4 L87.0,323.0 L92.5,323.4 L98.0,323.3
		L103.5,323.3 L109.0,342.9 L114.5,344.5 L120.0,323.0 L125.5,344.6 L131.0,322.9 L136.5,321.9 L142.0,342.9
		L147.5,323.2 L153.0,342.8 L158.5,323.2 L164.0,343.1 L169.5,323.0 L175.0,344.7 L180.5,343.5 L186.0,342.9
		L191.5,323.6 L197.0,323.7 L202.5,323.8 L208.0,343.1 L213.5,323.3 L219.0,323.9 L224.5,343.3 L230.0,344.3
		L235.5,323.7 L241.0,323.4 L246.5,323.5 L252.0,323.4 L257.5,323.8 L263.0,323.0 L268.5,323.5 L274.0,342.8
		L279.5,345.2 L285.0,323.5 L290.5,323.5 L296.0,323.5 L301.5,343.0 L307.0,323.1 L312.5,323.7 L318.0,323.3
		L323.5,345.1 L329.0,323.5 L334.5,323.6 L340.0,343.0 L345.5,344.9 L351.0,343.3 L356.5,321.9 L362.0,323.4
		L367.5,343.0 L373.0,344.8 L378.5,344.6 L384.0,344.5 L389.5,324.0 L395.0,343.5 L400.5,343.5 L406.0,323.4
		L411.5,345.1 L417.0,323.5 L422.5,343.3 L428.0,323.9 L433.5,323.4 L439.0,323.8 L444.5,323.9 L450.0,344.6
		L455.5,323.7 L461.0,323.6 L466.5,323.6 L472.0,323.7 L477.5,323.1 L483.0,323.8 L488.5,323.5 L494.0,344.9
		L499.5,323.9 L505.0,323.7 L510.5,342.9 L516.0,323.7 L521.5,343.2 L527.0,323.7 L532.5,324.2 L538.0,323.6
		L543.5,344.9 L549.0,323.6 L554.5,323.9 L560.0,345.0 L565.5,323.7 L571.0,345.0 L576.5,344.6 L582.0,344.7
		L587.5,323.7 L593.0,324.0 L598.5,345.5 L604.0,323.5 L609.5,343.1 L615.0,342.9  '/></g>
	</g>
	<g id="gnuplot_plot_2" ><title>pages+cached+nointeractive</title>
<g fill="none" color="black" stroke="currentColor" stroke-width="1.00" stroke-linecap="butt" stroke-linejoin="miter">
	<g transform="translate(283.9,485.9)" stroke="none" fill="black" font-family="Arial" font-size="12.00"  text-anchor="end">
		<text><tspan font-family="Arial" >pages+cached+nointeractive</tspan></text>
	</g>
</g>
<g fill="none" color="black" stroke="currentColor" stroke-width="1.00" stroke-linecap="butt" stroke-linejoin="miter">
	<path stroke='rgb(  0, 158, 115)'  d='M292.2,482.0 L334.4,482.0 M70.5,343.1 L76.0,324.0 L81.5,323.9 L87.0,323.7 L92.5,323.6 L98.0,323.7
		L103.5,342.7 L109.0,343.8 L114.5,322.1 L120.0,343.3 L125.5,323.9 L131.0,343.4 L136.5,344.9 L142.0,343.1
		L147.5,323.8 L153.0,323.4 L158.5,324.1 L164.0,323.5 L169.5,323.8 L175.0,343.3 L180.5,323.8 L186.0,323.6
		L191.5,323.7 L197.0,323.6 L202.5,343.5 L208.0,344.6 L213.5,322.4 L219.0,344.9 L224.5,26.3 L230.0,227.7
		L235.5,26.0 L241.0,26.8 L246.5,216.5 L252.0,226.5 L257.5,37.9 L263.0,216.5 L268.5,123.6 L274.0,26.2
		L279.5,26.6 L285.0,26.6 L290.5,216.2 L296.0,26.1 L301.5,26.6 L307.0,26.0 L312.5,37.7 L318.0,37.8
		L323.5,26.6 L329.0,26.5 L334.5,26.4 L340.0,123.8 L345.5,26.6 L351.0,123.7 L356.5,37.9 L362.0,227.8
		L367.5,216.4 L373.0,228.1 L378.5,36.1 L384.0,123.6 L389.5,27.2 L395.0,227.9 L400.5,215.9 L406.0,36.1
		L411.5,26.7 L417.0,26.3 L422.5,216.2 L428.0,216.5 L433.5,123.7 L439.0,216.5 L444.5,123.6 L450.0,26.3
		L455.5,294.7 L461.0,304.1 L466.5,216.4 L472.0,216.5 L477.5,26.2 L483.0,26.7 L488.5,26.4 L494.0,26.2
		L499.5,26.4 L505.0,227.7 L510.5,27.0 L516.0,294.2 L521.5,26.0 L527.0,227.9 L532.5,228.7 L538.0,26.3
		L543.5,216.4 L549.0,36.0 L554.5,216.5 L560.0,304.5 L565.5,26.4 L571.0,215.9 L576.5,37.5 L582.0,216.6
		L587.5,26.8 L593.0,226.5 L598.5,216.6 L604.0,26.5 L609.5,26.5 L615.0,26.2  '/></g>
	</g>
	<g id="gnuplot_plot_3" ><title>score p10=2500</title>
<g fill="none" color="black" stroke="currentColor" stroke-width="1.00" stroke-linecap="butt" stroke-linejoin="miter">
	<g transform="translate(558.5,467.9)" stroke="none" fill="black" font-family="Arial" font-size="12.00"  text-anchor="end">
		<text><tspan font-family="Arial" >score p10=2500</tspan></text>
	</g>
</g>
<g fill="none" color="black" stroke="currentColor" stroke-width="1.00" stroke-linecap="butt" stroke-linejoin="miter">
	<path stroke='rgb( 86, 180, 233)'  d='M566.8,464.0 L609.0,464.0  '/></g>
	</g>
	<g id="gnuplot_plot_4" ><title>score median=4000</title>
<g fill="none" color="black" stroke="currentColor" stroke-width="1.00" stroke-linecap="butt" stroke-linejoin="miter">
	<g transform="translate(558.5,485.9)" stroke="none" fill="black" font-family="Arial" font-size="12.00"  text-anchor="end">
		<text><tspan font-family="Arial" >score median=4000</tspan></text>
	</g>
</g>
<g fill="none" color="black" stroke="currentColor" stroke-width="1.00" stroke-linecap="butt" stroke-linejoin="miter">
	<path stroke='rgb(230, 159,   0)'  d='M566.8,482.0 L609.0,482.0  '/></g>
	</g>
<g fill="none" color="#FFFFFF" stroke="rgb(230, 159,   0)" stroke-width="2.00" stroke-linecap="butt" stroke-linejoin="miter">
</g>
<g fill="none" color="black" stroke="currentColor" stroke-width="2.00" stroke-linecap="butt" stroke-linejoin="miter">
</g>
<g fill="none" color="black" stroke="black" stroke-width="1.00" stroke-linecap="butt" stroke-linejoin="miter">
</g>
<g fill="none" color="black" stroke="currentColor" stroke-width="1.00" stroke-linecap="butt" stroke-linejoin="miter">
	<path stroke='black'  d='M70.5,18.1 L70.5,428.0 L615.0,428.0 L615.0,18.1 L70.5,18.1 Z  '/></g>
<g fill="none" color="black" stroke="currentColor" stroke-width="1.00" stroke-linecap="butt" stroke-linejoin="miter">
</g>
</g>
</svg>
